austria/municipalities/20302.svg

<svg xmlns="http://www.w3.org/2000/svg" width="850" height="850" style="shape-rendering:geometricPrecision;text-rendering:geometricPrecision;image-rendering:optimizeQuality;fill-rule:evenodd;clip-rule:evenodd"><path style="opacity:1" fill="#c8c7c7" d="M837.5 17.5v-6h-826v4c-.951-1.419-1.284-3.085-1-5h828c.302 2.56-.032 4.893-1 7z"/><path style="opacity:1" fill="#272323" d="M837.5 17.5a61428.695 61428.695 0 0 1-33.5 476C785.884 635.854 713.051 739.02 585.5 803c-101.823 45.101-204.489 47.101-308 6C169.696 761.862 97.529 682.362 61 570.5a436.225 436.225 0 0 1-15-70 46084.756 46084.756 0 0 1-34.5-485v-4h826v6z"/><path style="opacity:1" fill="#124262" d="M662.5 29.5a6162.74 6162.74 0 0 1 157-1c.295 2.235-.039 4.235-1 6v-5h-156z"/><path style="opacity:1" fill="#fcb713" d="M30.5 28.5c208.668-.333 417.334 0 626 1a112.57 112.57 0 0 0-14.5 20 1524.762 1524.762 0 0 1-44 82 331.706 331.706 0 0 1-18 25 405.59 405.59 0 0 1-25.5 22.5 2884.27 2884.27 0 0 0-101 74 134.173 134.173 0 0 0-18.5 20.5 1154.946 1154.946 0 0 0-30 49c-11.341 16.681-24.841 31.514-40.5 44.5l-56 43a289.942 289.942 0 0 0-26.5 24.5 200.8 200.8 0 0 0-19 27 1739.46 1739.46 0 0 1-27 49 218.192 218.192 0 0 1-15 20 562.168 562.168 0 0 1-29.5 25.5l-58 41a1205.85 1205.85 0 0 0-30 28.5c-22.669-44.33-36.502-91.33-41.5-141a88847.88 88847.88 0 0 0-31.5-456z"/><path style="opacity:1" fill="#0065a5" d="M662.5 29.5h156v5a25.878 25.878 0 0 1-1 10 1555.438 1555.438 0 0 1-35 31.5 327.948 327.948 0 0 0-29.5 31.5l-43 80a292.95 292.95 0 0 1-26 38 247.757 247.757 0 0 1-28.5 24.5 2462.544 2462.544 0 0 0-96 70 174.305 174.305 0 0 0-24.5 28.5 579.926 579.926 0 0 1-39 61 441.019 441.019 0 0 1-25.5 24.5 2860.027 2860.027 0 0 1-57 44c-17.004 13-31.171 28.5-42.5 46.5a862.643 862.643 0 0 1-40 68 286.39 286.39 0 0 1-29.5 27.5 2615.798 2615.798 0 0 0-70 51 1307.762 1307.762 0 0 0-52 53.5c-30.489-26.983-55.156-58.483-74-94.5a700.201 700.201 0 0 1 32-31 1496.839 1496.839 0 0 0 73-53c13.442-12.097 24.609-25.931 33.5-41.5 11.239-22.827 24.239-44.494 39-65a286.39 286.39 0 0 1 29.5-27.5 2860.027 2860.027 0 0 0 57-44c15.709-12.701 28.876-27.535 39.5-44.5a408.848 408.848 0 0 1 36-56c12.324-13 25.824-24.5 40.5-34.5a2802.735 2802.735 0 0 0 73-52 311.18 311.18 0 0 0 22.5-19.5 393.051 393.051 0 0 0 27-39 4239.138 4239.138 0 0 0 41-77 104.197 104.197 0 0 1 13.5-16z"/><path style="opacity:1" fill="#fcb713" d="M816.5 50.5c.639.597.972 1.43 1 2.5A349177.041 349177.041 0 0 1 786 490.5C772.017 610.062 714.85 702.228 614.5 767c-108.979 62.962-221.645 70.296-338 22-34.401-15.851-65.735-36.184-94-61a1066.897 1066.897 0 0 1 54-56 4009.371 4009.371 0 0 1 69-50c14.581-11.246 27.081-24.413 37.5-39.5a1739.46 1739.46 0 0 0 27-49c10.856-19.201 25.023-35.701 42.5-49.5a2860.027 2860.027 0 0 1 57-44c16.623-12.953 30.789-28.12 42.5-45.5a1826.299 1826.299 0 0 1 30-49 178.562 178.562 0 0 1 21.5-23.5 4230.25 4230.25 0 0 1 100-73 282.114 282.114 0 0 0 21.5-18.5 323.249 323.249 0 0 0 25-35 5194.062 5194.062 0 0 0 46-85 571.021 571.021 0 0 1 60.5-60z"/><path style="opacity:1" fill="#282323" d="m347.5 178.5-2 22c-18.388-11.106-27.054-27.439-26-49-3.117.142-5.617 1.476-7.5 4a100.526 100.526 0 0 0-10.5 33 119.606 119.606 0 0 1 9.5 9c3.594 6.993 2.928 13.659-2 20-1.87 1.719-4.037 2.719-6.5 3-.041 12.381 3.959 23.215 12 32.5 2.525.896 4.692.396 6.5-1.5a406.816 406.816 0 0 0 5.5-19c16.953 14.653 17.286 29.82 1 45.5-22.638 13.004-40.472 8.171-53.5-14.5-6.02-14.745-8.853-30.079-8.5-46h-5a328.352 328.352 0 0 0 4.5 44 670.663 670.663 0 0 0 16.5 43 614.79 614.79 0 0 1-18.5 17c-7.053 8.777-11.386 18.777-13 30-1.356.88-2.856 1.214-4.5 1-1.777-11.551-6.277-21.884-13.5-31a614.79 614.79 0 0 1-18.5-17 567.86 567.86 0 0 0 17.5-47 333.034 333.034 0 0 0 3.5-40h-5c.324 16.702-2.843 32.702-9.5 48-9.926 16.979-24.426 22.813-43.5 17.5-18.676-9.027-24.176-23.193-16.5-42.5a96.005 96.005 0 0 1 8.5-8 78.06 78.06 0 0 0 6.5 20c1.133 1.711 2.633 2.211 4.5 1.5 8.69-9.066 12.857-19.9 12.5-32.5-9.885-5.656-12.552-13.656-8-24a119.606 119.606 0 0 1 9.5-9 100.55 100.55 0 0 0-10.5-33c-1.883-2.524-4.383-3.858-7.5-4 1.065 21.539-7.602 37.872-26 49l-2-23c-.391-8.131-2.558-15.797-6.5-23-2.489-17.207 4.344-28.707 20.5-34.5 26.138.002 44.304 12.169 54.5 36.5a117.983 117.983 0 0 1 7.5 37h5a222.065 222.065 0 0 0-1.5-33 691.736 691.736 0 0 0-18.5-43c19.88-12.902 32.88-30.902 39-54 6.134 23.109 19.134 41.109 39 54a615.247 615.247 0 0 0-18.5 43 213.95 213.95 0 0 0-1.5 33h5c-.016-25.152 8.984-46.319 27-63.5 9.98-7.993 21.313-11.326 34-10 17.337 5.029 24.503 16.529 21.5 34.5a145.522 145.522 0 0 1-6 15 40.914 40.914 0 0 0-.5 9z"/><path style="opacity:1" fill="#0065a4" d="M246.5 76.5c8.076 17.091 19.743 31.425 35 43a236.5 236.5 0 0 0-18.5 47 481.165 481.165 0 0 0-.5 31h12a179.674 179.674 0 0 1 8.5-40c7.404-16.406 19.571-27.573 36.5-33.5 23.522-1.481 33.355 9.352 29.5 32.5a61.24 61.24 0 0 0-5 14 368.546 368.546 0 0 1-2.5 22c-13.526-10.722-19.693-24.722-18.5-42-2.679-3.335-5.845-3.835-9.5-1.5-4.52 3.536-7.686 8.036-9.5 13.5a160.28 160.28 0 0 0-6 29 78.39 78.39 0 0 1 11 10c1.509 5.784.009 10.617-4.5 14.5a10.098 10.098 0 0 1-6 1.5c-.24 13.112 3.26 25.112 10.5 36 5.93 7.005 11.263 6.671 16-1a182.95 182.95 0 0 1 4-13c6.433 9.96 7.099 20.293 2 31-4.024 5.092-9.191 8.259-15.5 9.5-17.096 3.699-29.596-2.134-37.5-17.5-6.634-15.658-9.467-31.991-8.5-49h-13a315.87 315.87 0 0 0 3.5 45 501.074 501.074 0 0 0 16.5 44.5L258 321.5a95.31 95.31 0 0 0-10.5 20 126.383 126.383 0 0 0-9.5-19 290.682 290.682 0 0 0-19.5-19.5 499.643 499.643 0 0 0 16.5-44.5 594.55 594.55 0 0 0 4.5-45h-14c.684 16.203-1.816 31.869-7.5 47-9.893 18.972-25.06 24.805-45.5 17.5-10.972-7.456-14.472-17.622-10.5-30.5a602.298 602.298 0 0 1 4-8 182.95 182.95 0 0 1 4 13c4.825 7.561 10.159 7.894 16 1 7.529-10.778 11.029-22.778 10.5-36-5.34-.165-8.84-2.832-10.5-8a16.242 16.242 0 0 1 0-8 190.4 190.4 0 0 0 11.5-12c-1.194-12.38-4.694-24.047-10.5-35-2.545-3.559-5.879-5.892-10-7-2.151.143-3.818 1.143-5 3 1.46 17.483-4.707 31.483-18.5 42a497.62 497.62 0 0 0-3.5-27c-5.397-8.78-6.73-18.113-4-28 6.588-11.375 16.421-15.875 29.5-13.5 20.398 7.4 33.565 21.566 39.5 42.5a206.382 206.382 0 0 1 5.5 31h12a194.134 194.134 0 0 0-2.5-41 656.7 656.7 0 0 0-16.5-37.5c16.124-10.278 27.124-24.445 33-42.5z"/><path style="opacity:1" fill="#85641b" d="m147.5 177.5 2 23c-.06.543-.393.876-1 1a144.841 144.841 0 0 1-1-24zM347.5 178.5a133.155 133.155 0 0 1-1 23c-.607-.124-.94-.457-1-1l2-22z"/><path style="opacity:1" fill="#282423" d="M556.5 440.5a4.934 4.934 0 0 1 3 .5 869.535 869.535 0 0 0 34.5 35.5c12.322-10.987 24.655-21.987 37-33a1231.557 1231.557 0 0 1 28.5 31 194.457 194.457 0 0 1 12.5-11 233.482 233.482 0 0 1 22.5 22 247.588 247.588 0 0 1-13 13.5l14.5 16.5a883.75 883.75 0 0 1 1.5 42 316.858 316.858 0 0 1-43-5.5 95.927 95.927 0 0 0-14-14.5 218.006 218.006 0 0 0-25 24 7257.967 7257.967 0 0 0 70.5 73c.667.667.667 1.333 0 2L666.5 656c-.667.667-1.333.667-2 0a7499.392 7499.392 0 0 0-72-73.5 6944.185 6944.185 0 0 0-73.5 67 468.896 468.896 0 0 0-20-21c-.667-.667-.667-1.333 0-2a3534.412 3534.412 0 0 1 71.5-66.5 553.24 553.24 0 0 0-27.5-28.5 1511.87 1511.87 0 0 0-33.5 32 2129.909 2129.909 0 0 1-38-39.5 10082.836 10082.836 0 0 0 85-83.5z"/><path style="opacity:1" fill="#0065a4" d="M556.5 445.5a1456.323 1456.323 0 0 1 32.5 32c.667 1 .667 2 0 3a1205.19 1205.19 0 0 1-29.5 29 551.705 551.705 0 0 0 33.5 35 460.622 460.622 0 0 0 32.5-30 429.552 429.552 0 0 0-28.5-32c-.667-1-.667-2 0-3l34-30a612.899 612.899 0 0 1 28 31 194.457 194.457 0 0 0 12.5-11 116.67 116.67 0 0 1 16.5 15c.667.667.667 1.333 0 2a101.252 101.252 0 0 0-11.5 12.5c4.41 6.416 9.577 12.249 15.5 17.5.351 12.345.851 24.678 1.5 37a856 856 0 0 1-37-5.5 190.366 190.366 0 0 0-15.5-16.5 1342.109 1342.109 0 0 0-31.5 30 7181.23 7181.23 0 0 1 70.5 72c.667 1 .667 2 0 3L666.5 650c-.667.667-1.333.667-2 0a11871.774 11871.774 0 0 0-72.5-73.5 10595.366 10595.366 0 0 0-71.5 66.5c-.667.667-1.333.667-2 0-5.632-4.878-10.132-10.378-13.5-16.5a3534.412 3534.412 0 0 1 71.5-66.5 815.767 815.767 0 0 1-33.5-34.5 504.45 504.45 0 0 1-33.5 32 1517.2 1517.2 0 0 1-32-33.5 8766.964 8766.964 0 0 1 79-78.5z"/><path style="opacity:1" fill="#fab613" d="M591.5 483.5c1.517.011 2.684.677 3.5 2a513.131 513.131 0 0 0 25.5 28.5 933.163 933.163 0 0 1-27 24.5 287.267 287.267 0 0 1-28-29 477.942 477.942 0 0 0 26-26z"/></svg>

<?xml version="1.0" encoding="UTF-8"?>
<!DOCTYPE svg PUBLIC "-//W3C//DTD SVG 1.1//EN" "http://www.w3.org/Graphics/SVG/1.1/DTD/svg11.dtd">
<svg xmlns="http://www.w3.org/2000/svg" version="1.1" width="850px" height="850px" style="shape-rendering:geometricPrecision; text-rendering:geometricPrecision; image-rendering:optimizeQuality; fill-rule:evenodd; clip-rule:evenodd" xmlns:xlink="http://www.w3.org/1999/xlink">
<g><path style="opacity:1" fill="#c8c7c7" d="M 837.5,17.5 C 837.5,15.5 837.5,13.5 837.5,11.5C 562.167,11.5 286.833,11.5 11.5,11.5C 11.5,12.8333 11.5,14.1667 11.5,15.5C 10.5489,14.0813 10.2155,12.4147 10.5,10.5C 286.5,10.5 562.5,10.5 838.5,10.5C 838.802,13.0593 838.468,15.3926 837.5,17.5 Z"/></g>
<g><path style="opacity:1" fill="#272323" d="M 837.5,17.5 C 826.95,176.207 815.783,334.873 804,493.5C 785.884,635.854 713.051,739.02 585.5,803C 483.677,848.101 381.011,850.101 277.5,809C 169.696,761.862 97.5288,682.362 61,570.5C 54.0829,547.581 49.0829,524.248 46,500.5C 33.6471,338.893 22.1471,177.227 11.5,15.5C 11.5,14.1667 11.5,12.8333 11.5,11.5C 286.833,11.5 562.167,11.5 837.5,11.5C 837.5,13.5 837.5,15.5 837.5,17.5 Z"/></g>
<g><path style="opacity:1" fill="#124262" d="M 662.5,29.5 C 714.664,28.5011 766.997,28.1677 819.5,28.5C 819.795,30.7354 819.461,32.7354 818.5,34.5C 818.5,32.8333 818.5,31.1667 818.5,29.5C 766.5,29.5 714.5,29.5 662.5,29.5 Z"/></g>
<g><path style="opacity:1" fill="#fcb713" d="M 30.5,28.5 C 239.168,28.1667 447.834,28.5 656.5,29.5C 650.932,35.6358 646.099,42.3025 642,49.5C 628.138,77.3364 613.471,104.67 598,131.5C 592.387,140.112 586.387,148.446 580,156.5C 571.797,164.372 563.297,171.872 554.5,179C 520.301,202.934 486.634,227.6 453.5,253C 446.593,259.236 440.427,266.069 435,273.5C 424.603,289.569 414.603,305.903 405,322.5C 393.659,339.181 380.159,354.014 364.5,367C 345.833,381.333 327.167,395.667 308.5,410C 299.192,417.585 290.358,425.752 282,434.5C 274.929,442.974 268.595,451.974 263,461.5C 254.254,477.994 245.254,494.327 236,510.5C 231.385,517.45 226.385,524.116 221,530.5C 211.447,539.354 201.613,547.854 191.5,556C 172.167,569.667 152.833,583.333 133.5,597C 123.349,606.317 113.349,615.817 103.5,625.5C 80.8313,581.17 66.998,534.17 62,484.5C 51.8903,332.463 41.3903,180.463 30.5,28.5 Z"/></g>
<g><path style="opacity:1" fill="#0065a5" d="M 662.5,29.5 C 714.5,29.5 766.5,29.5 818.5,29.5C 818.5,31.1667 818.5,32.8333 818.5,34.5C 818.82,37.8984 818.487,41.2317 817.5,44.5C 805.983,55.1851 794.316,65.6851 782.5,76C 771.933,85.897 762.1,96.397 753,107.5C 738.667,134.167 724.333,160.833 710,187.5C 702.322,200.861 693.655,213.528 684,225.5C 675.089,234.415 665.589,242.582 655.5,250C 622.939,272.56 590.939,295.893 559.5,320C 550.268,328.661 542.102,338.161 535,348.5C 523.248,369.681 510.248,390.014 496,409.5C 487.803,418.031 479.303,426.198 470.5,434C 451.681,448.909 432.681,463.575 413.5,478C 396.496,491 382.329,506.5 371,524.5C 358.675,547.825 345.342,570.492 331,592.5C 321.769,602.401 311.936,611.567 301.5,620C 277.886,636.613 254.553,653.613 231.5,671C 213.595,688.404 196.261,706.237 179.5,724.5C 149.011,697.517 124.344,666.017 105.5,630C 115.863,619.303 126.529,608.97 137.5,599C 162.364,582.068 186.698,564.401 210.5,546C 223.942,533.903 235.109,520.069 244,504.5C 255.239,481.673 268.239,460.006 283,439.5C 292.231,429.599 302.064,420.433 312.5,412C 331.681,397.575 350.681,382.909 369.5,368C 385.209,355.299 398.376,340.465 409,323.5C 419.504,303.814 431.504,285.147 445,267.5C 457.324,254.5 470.824,243 485.5,233C 510.111,216.055 534.445,198.722 558.5,181C 566.295,174.873 573.795,168.373 581,161.5C 590.78,149.051 599.78,136.051 608,122.5C 621.921,96.992 635.588,71.3253 649,45.5C 652.989,39.6825 657.489,34.3492 662.5,29.5 Z"/></g>
<g><path style="opacity:1" fill="#fcb713" d="M 816.5,50.5 C 817.139,51.0968 817.472,51.9302 817.5,53C 807.092,198.834 796.592,344.668 786,490.5C 772.017,610.062 714.85,702.228 614.5,767C 505.521,829.962 392.855,837.296 276.5,789C 242.099,773.149 210.765,752.816 182.5,728C 199.772,708.726 217.772,690.059 236.5,672C 259.323,655.089 282.323,638.422 305.5,622C 320.081,610.754 332.581,597.587 343,582.5C 352.254,566.327 361.254,549.994 370,533.5C 380.856,514.299 395.023,497.799 412.5,484C 431.319,469.091 450.319,454.425 469.5,440C 486.123,427.047 500.289,411.88 512,394.5C 521.749,378 531.749,361.666 542,345.5C 548.429,337.067 555.596,329.234 563.5,322C 596.479,297.178 629.812,272.844 663.5,249C 670.961,243.207 678.128,237.041 685,230.5C 694.109,219.39 702.443,207.723 710,195.5C 725.588,167.326 740.921,138.993 756,110.5C 774.731,88.935 794.898,68.935 816.5,50.5 Z"/></g>
<g><path style="opacity:1" fill="#282323" d="M 347.5,178.5 C 346.833,185.833 346.167,193.167 345.5,200.5C 327.112,189.394 318.446,173.061 319.5,151.5C 316.383,151.642 313.883,152.976 312,155.5C 306.589,165.899 303.089,176.899 301.5,188.5C 304.791,191.289 307.958,194.289 311,197.5C 314.594,204.493 313.928,211.159 309,217.5C 307.13,219.219 304.963,220.219 302.5,220.5C 302.459,232.881 306.459,243.715 314.5,253C 317.025,253.896 319.192,253.396 321,251.5C 322.992,245.196 324.825,238.862 326.5,232.5C 343.453,247.153 343.786,262.32 327.5,278C 304.862,291.004 287.028,286.171 274,263.5C 267.98,248.755 265.147,233.421 265.5,217.5C 263.833,217.5 262.167,217.5 260.5,217.5C 261.011,232.267 262.511,246.934 265,261.5C 270.006,276.018 275.506,290.351 281.5,304.5C 275.47,310.274 269.303,315.94 263,321.5C 255.947,330.277 251.614,340.277 250,351.5C 248.644,352.38 247.144,352.714 245.5,352.5C 243.723,340.949 239.223,330.616 232,321.5C 225.697,315.94 219.53,310.274 213.5,304.5C 220.025,289.093 225.858,273.426 231,257.5C 232.971,244.237 234.138,230.904 234.5,217.5C 232.833,217.5 231.167,217.5 229.5,217.5C 229.824,234.202 226.657,250.202 220,265.5C 210.074,282.479 195.574,288.313 176.5,283C 157.824,273.973 152.324,259.807 160,240.5C 162.682,237.65 165.516,234.984 168.5,232.5C 169.764,239.457 171.93,246.124 175,252.5C 176.133,254.211 177.633,254.711 179.5,254C 188.19,244.934 192.357,234.1 192,221.5C 182.115,215.844 179.448,207.844 184,197.5C 187.042,194.289 190.209,191.289 193.5,188.5C 191.907,176.888 188.407,165.888 183,155.5C 181.117,152.976 178.617,151.642 175.5,151.5C 176.565,173.039 167.898,189.372 149.5,200.5C 148.833,192.833 148.167,185.167 147.5,177.5C 147.109,169.369 144.942,161.703 141,154.5C 138.511,137.293 145.344,125.793 161.5,120C 187.638,120.002 205.804,132.169 216,156.5C 220.484,168.421 222.984,180.754 223.5,193.5C 225.167,193.5 226.833,193.5 228.5,193.5C 228.819,182.456 228.319,171.456 227,160.5C 221.32,145.961 215.153,131.628 208.5,117.5C 228.38,104.598 241.38,86.5984 247.5,63.5C 253.634,86.6085 266.634,104.609 286.5,117.5C 279.8,131.571 273.633,145.904 268,160.5C 266.65,171.451 266.15,182.451 266.5,193.5C 268.167,193.5 269.833,193.5 271.5,193.5C 271.484,168.348 280.484,147.181 298.5,130C 308.48,122.007 319.813,118.674 332.5,120C 349.837,125.029 357.003,136.529 354,154.5C 352.277,159.613 350.277,164.613 348,169.5C 347.502,172.482 347.335,175.482 347.5,178.5 Z"/></g>
<g><path style="opacity:1" fill="#0065a4" d="M 246.5,76.5 C 254.576,93.5915 266.243,107.925 281.5,119.5C 273.641,134.544 267.474,150.21 263,166.5C 262.5,176.828 262.334,187.161 262.5,197.5C 266.5,197.5 270.5,197.5 274.5,197.5C 275.807,183.863 278.64,170.53 283,157.5C 290.404,141.094 302.571,129.927 319.5,124C 343.022,122.519 352.855,133.352 349,156.5C 346.76,160.976 345.094,165.643 344,170.5C 343.387,177.861 342.553,185.195 341.5,192.5C 327.974,181.778 321.807,167.778 323,150.5C 320.321,147.165 317.155,146.665 313.5,149C 308.98,152.536 305.814,157.036 304,162.5C 301.089,172.059 299.089,181.726 298,191.5C 301.992,194.492 305.658,197.826 309,201.5C 310.509,207.284 309.009,212.117 304.5,216C 302.655,217.128 300.655,217.628 298.5,217.5C 298.26,230.612 301.76,242.612 309,253.5C 314.93,260.505 320.263,260.171 325,252.5C 326.19,248.058 327.524,243.725 329,239.5C 335.433,249.46 336.099,259.793 331,270.5C 326.976,275.592 321.809,278.759 315.5,280C 298.404,283.699 285.904,277.866 278,262.5C 271.366,246.842 268.533,230.509 269.5,213.5C 265.167,213.5 260.833,213.5 256.5,213.5C 256.593,228.578 257.76,243.578 260,258.5C 264.798,273.596 270.298,288.43 276.5,303C 270.346,309.154 264.179,315.321 258,321.5C 253.716,327.734 250.216,334.4 247.5,341.5C 244.865,334.897 241.698,328.563 238,322.5C 231.771,315.654 225.271,309.154 218.5,303C 224.708,288.42 230.208,273.586 235,258.5C 237.071,243.554 238.571,228.554 239.5,213.5C 234.833,213.5 230.167,213.5 225.5,213.5C 226.184,229.703 223.684,245.369 218,260.5C 208.107,279.472 192.94,285.305 172.5,278C 161.528,270.544 158.028,260.378 162,247.5C 163.299,244.853 164.632,242.186 166,239.5C 167.476,243.725 168.81,248.058 170,252.5C 174.825,260.061 180.159,260.394 186,253.5C 193.529,242.722 197.029,230.722 196.5,217.5C 191.16,217.335 187.66,214.668 186,209.5C 185.333,206.833 185.333,204.167 186,201.5C 190.1,197.571 193.934,193.571 197.5,189.5C 196.306,177.12 192.806,165.453 187,154.5C 184.455,150.941 181.121,148.608 177,147.5C 174.849,147.643 173.182,148.643 172,150.5C 173.46,167.983 167.293,181.983 153.5,192.5C 152.58,183.47 151.413,174.47 150,165.5C 144.603,156.72 143.27,147.387 146,137.5C 152.588,126.125 162.421,121.625 175.5,124C 195.898,131.4 209.065,145.566 215,166.5C 217.624,176.7 219.457,187.033 220.5,197.5C 224.5,197.5 228.5,197.5 232.5,197.5C 233.115,183.722 232.282,170.055 230,156.5C 224.885,143.817 219.385,131.317 213.5,119C 229.624,108.722 240.624,94.555 246.5,76.5 Z"/></g>
<g><path style="opacity:1" fill="#85641b" d="M 147.5,177.5 C 148.167,185.167 148.833,192.833 149.5,200.5C 149.44,201.043 149.107,201.376 148.5,201.5C 147.502,193.528 147.169,185.528 147.5,177.5 Z"/></g>
<g><path style="opacity:1" fill="#85641b" d="M 347.5,178.5 C 347.831,186.196 347.497,193.862 346.5,201.5C 345.893,201.376 345.56,201.043 345.5,200.5C 346.167,193.167 346.833,185.833 347.5,178.5 Z"/></g>
<g><path style="opacity:1" fill="#282423" d="M 556.5,440.5 C 557.552,440.351 558.552,440.517 559.5,441C 570.704,453.203 582.204,465.036 594,476.5C 606.322,465.513 618.655,454.513 631,443.5C 640.712,453.709 650.212,464.043 659.5,474.5C 663.518,470.647 667.685,466.981 672,463.5C 679.984,470.317 687.484,477.65 694.5,485.5C 690.349,490.152 686.015,494.652 681.5,499C 686.333,504.5 691.167,510 696,515.5C 696.833,529.49 697.333,543.49 697.5,557.5C 683.032,556.647 668.699,554.814 654.5,552C 650.351,546.684 645.685,541.851 640.5,537.5C 631.549,544.818 623.216,552.818 615.5,561.5C 638.818,585.985 662.318,610.319 686,634.5C 686.667,635.167 686.667,635.833 686,636.5C 679.5,643 673,649.5 666.5,656C 665.833,656.667 665.167,656.667 664.5,656C 640.654,631.321 616.654,606.821 592.5,582.5C 567.85,604.649 543.35,626.982 519,649.5C 512.564,642.309 505.898,635.309 499,628.5C 498.333,627.833 498.333,627.167 499,626.5C 522.548,603.985 546.381,581.818 570.5,560C 561.697,550.196 552.53,540.696 543,531.5C 531.682,541.984 520.515,552.651 509.5,563.5C 496.679,550.512 484.012,537.345 471.5,524C 500.033,496.299 528.367,468.466 556.5,440.5 Z"/></g>
<g><path style="opacity:1" fill="#0065a4" d="M 556.5,445.5 C 567.391,455.889 578.224,466.556 589,477.5C 589.667,478.5 589.667,479.5 589,480.5C 579.292,490.375 569.459,500.042 559.5,509.5C 570.12,521.621 581.286,533.288 593,544.5C 604.31,535.024 615.143,525.024 625.5,514.5C 616.557,503.387 607.057,492.72 597,482.5C 596.333,481.5 596.333,480.5 597,479.5C 608.333,469.5 619.667,459.5 631,449.5C 640.703,459.535 650.037,469.868 659,480.5C 663.315,477.019 667.482,473.353 671.5,469.5C 677.449,473.946 682.949,478.946 688,484.5C 688.667,485.167 688.667,485.833 688,486.5C 683.786,490.378 679.952,494.545 676.5,499C 680.91,505.416 686.077,511.249 692,516.5C 692.351,528.845 692.851,541.178 693.5,553.5C 681.123,551.936 668.79,550.102 656.5,548C 651.681,542.214 646.514,536.714 641,531.5C 630.322,541.345 619.822,551.345 609.5,561.5C 633.181,585.348 656.681,609.348 680,633.5C 680.667,634.5 680.667,635.5 680,636.5C 675.5,641 671,645.5 666.5,650C 665.833,650.667 665.167,650.667 664.5,650C 640.448,625.403 616.281,600.903 592,576.5C 568.071,598.551 544.238,620.717 520.5,643C 519.833,643.667 519.167,643.667 518.5,643C 512.868,638.122 508.368,632.622 505,626.5C 528.548,603.985 552.381,581.818 576.5,560C 564.97,548.804 553.803,537.304 543,525.5C 532.288,536.714 521.121,547.38 509.5,557.5C 498.666,546.499 487.999,535.333 477.5,524C 503.662,497.671 529.995,471.505 556.5,445.5 Z"/></g>
<g><path style="opacity:1" fill="#fab613" d="M 591.5,483.5 C 593.017,483.511 594.184,484.177 595,485.5C 603.129,495.298 611.629,504.798 620.5,514C 611.65,522.351 602.65,530.518 593.5,538.5C 583.467,529.467 574.133,519.801 565.5,509.5C 574.494,501.173 583.161,492.506 591.5,483.5 Z"/></g>
</svg>
